X:1039
M:C
L:1/8
Q:1/4=80 "Slow"
K:D
  a>b```d'<f a<fe>d| e>f (g/f/)(e/d/) B2 B>e|d/d/d d<d d>Ad<b|a<f`Te>f              d2 d  ||
  d'c'`Tba   ba`gf | e>f  g/f/e/d/    B2 B>e|d/d/d d<d d>Ad<b|a<f``e>f              d2 d  |]

